X: 45
T: Weapon Song
C: Teton Sioux band 1911-1914
N: Derived from sioux045.krn
O: South Dakota, U.S.A.
N: Teton Sioux Music by Frances Densmore, 1918
Z: transcribed to **kern format by Craig Sapp
L: 1/8
M: 3/4
Q: 1/4=58
K: A clef=bass
%%linebreak <none>
(3F C CC2C2 | 
(3F C CC2(3B, C A, ||  
[M:2/4](3B, C A, F,3/ F,/ | 
F,4- | 
F,2(3C B, B, | 
B,2A,2 | 
(3C B, B, B, C/ B,/ ||  
[M:3/4]A,> F, A,> F, F,3/ F,/ ||  
[M:2/4]F,4 ||  
[M:3/4]A,> F, A,> F, F,3/ F,/ ||  
[M:2/4]F,4 | 
F,4 :|]  



